packages/astro-components-stencil/src/icons/hourglass-empty.svg

<svg xmlns="http://www.w3.org/2000/svg" viewBox="0 0 24 24"><g xmlns="http://www.w3.org/2000/svg" id="hourglass-empty" fill-rule="nonzero">
            <path d="M8 2c-1.1 0-2 .9-2 2v3.17c0 .53.21 1.04.59 1.42L10 12l-3.42 3.42c-.37.38-.58.89-.58 1.42V20c0 1.1.9 2 2 2h8c1.1 0 2-.9 2-2v-3.16c0-.53-.21-1.04-.58-1.41L14 12l3.41-3.4c.38-.38.59-.89.59-1.42V4c0-1.1-.9-2-2-2H8zm8 14.5V19c0 .55-.45 1-1 1H9c-.55 0-1-.45-1-1v-2.5l4-4 4 4zm-4-5l-4-4V5c0-.55.45-1 1-1h6c.55 0 1 .45 1 1v2.5l-4 4z"/>
        </g></svg>

<svg width="24" height="24" viewBox="0 0 24 24" fill="none" xmlns="http://www.w3.org/2000/svg">
<path fill-rule="evenodd" clip-rule="evenodd" d="M8 2C6.9 2 6 2.9 6 4V7.17C6 7.7 6.21 8.21 6.59 8.59L10 12L6.58 15.42C6.21 15.8 6 16.31 6 16.84V20C6 21.1 6.9 22 8 22H16C17.1 22 18 21.1 18 20V16.84C18 16.31 17.79 15.8 17.42 15.43L14 12L17.41 8.6C17.79 8.22 18 7.71 18 7.18V4C18 2.9 17.1 2 16 2H8ZM16 16.5V19C16 19.55 15.55 20 15 20H9C8.45 20 8 19.55 8 19V16.5L12 12.5L16 16.5ZM8 5V7.5L12 11.5L16 7.5V5C16 4.45 15.55 4 15 4H9C8.45 4 8 4.45 8 5Z" fill="black"/>
</svg>
